X:201
T:20. THE DASHING WHITE SERGEANT
R:Reel
O:England
M:4/4
K:D
FE|:D2D2 DEFG|A^GAB A2fe|d2B2 A2F2|B2E2 EGFE|
D2D2 DEFG|A^GAB A2f2|e2d2 c2B2|[1 A2>B2 AGFE:|[2 (A4 A2) E2|
A2AB c2cd|e2ec A3A|B2Bc d2de|f2fd B3B|\
c2AA d2AA|e2AA f2AA|g2f2 e2d2|c2B2 A2G2|\
F2d2 dcde|d2A2 A3B|G2e2 edef|e2B2 B3A|\
F2d2 dcde|f2d2 dcde|f2z2 a2z2|d2cB AGFE||
